src/assets/outline/Icon2.svg

<svg width="24" height="24" viewBox="0 0 24 24"  xmlns="http://www.w3.org/2000/svg">
<path d="M12 12.25C10.48 12.25 9.25 11.02 9.25 9.5C9.25 7.98 10.48 6.75 12 6.75C13.52 6.75 14.75 7.98 14.75 9.5C14.75 11.02 13.52 12.25 12 12.25ZM12 8.25C11.31 8.25 10.75 8.81 10.75 9.5C10.75 10.19 11.31 10.75 12 10.75C12.69 10.75 13.25 10.19 13.25 9.5C13.25 8.81 12.69 8.25 12 8.25Z" />
<path d="M11.99 14.7205C11.19 14.7205 10.39 14.5405 9.65999 14.1705C9.28999 13.9805 9.14003 13.5305 9.33003 13.1605C9.51003 12.7905 9.96004 12.6405 10.34 12.8305C11.38 13.3505 12.62 13.3505 13.66 12.8305C14.02 12.6505 14.48 12.7905 14.66 13.1505C14.85 13.5105 14.72 13.9605 14.36 14.1505C13.61 14.5305 12.8 14.7205 11.99 14.7205Z" />
<path d="M14.0001 17.2502C13.7801 17.2502 13.56 17.1502 13.41 16.9702L12.0001 15.1902L10.5901 16.9702C10.3401 17.2902 9.86003 17.3502 9.54003 17.0902C9.22003 16.8302 9.16004 16.3602 9.42004 16.0402L11.42 13.5102C11.7 13.1502 12.31 13.1502 12.6 13.5102L14.6 16.0402C14.86 16.3702 14.8 16.8402 14.48 17.0902C14.33 17.2002 14.1601 17.2502 14.0001 17.2502Z" />
<path d="M12 22.75C6.07 22.75 1.25 17.93 1.25 12C1.25 6.07 6.07 1.25 12 1.25C17.93 1.25 22.75 6.07 22.75 12C22.75 17.93 17.93 22.75 12 22.75ZM12 2.75C6.9 2.75 2.75 6.9 2.75 12C2.75 17.1 6.9 21.25 12 21.25C17.1 21.25 21.25 17.1 21.25 12C21.25 6.9 17.1 2.75 12 2.75Z" />
</svg>

<?xml version="1.0" encoding="UTF-8"?>
<svg width="24" height="24" viewBox="0 0 24 24" xmlns="http://www.w3.org/2000/svg">
 <path d="m12 12.25c-1.52 0-2.75-1.23-2.75-2.75s1.23-2.75 2.75-2.75 2.75 1.23 2.75 2.75-1.23 2.75-2.75 2.75zm0-4c-0.69 0-1.25 0.56-1.25 1.25s0.56 1.25 1.25 1.25 1.25-0.56 1.25-1.25-0.56-1.25-1.25-1.25z"/>
 <path d="m11.99 14.72c-0.8 0-1.6-0.18-2.33-0.55-0.37-0.19-0.51996-0.64-0.32996-1.01 0.18-0.37 0.63001-0.52 1.01-0.33 1.04 0.52 2.28 0.52 3.32 0 0.36-0.18 0.82-0.04 1 0.32 0.19 0.36 0.06 0.81-0.3 1-0.75 0.38-1.56 0.57-2.37 0.57z"/>
 <path d="m14 17.25c-0.22 0-0.4401-0.1-0.5901-0.28l-1.4099-1.78-1.41 1.78c-0.25 0.32-0.73007 0.38-1.0501 0.12s-0.37999-0.73-0.11999-1.05l2-2.53c0.28-0.36 0.89-0.36 1.18 0l2 2.53c0.26 0.33 0.2 0.8-0.12 1.05-0.15 0.11-0.3199 0.16-0.4799 0.16z"/>
 <path d="m12 22.75c-5.93 0-10.75-4.82-10.75-10.75s4.82-10.75 10.75-10.75 10.75 4.82 10.75 10.75-4.82 10.75-10.75 10.75zm0-20c-5.1 0-9.25 4.15-9.25 9.25s4.15 9.25 9.25 9.25 9.25-4.15 9.25-9.25-4.15-9.25-9.25-9.25z"/>
</svg>
